X: 8603
T: Cronin's
R: slide
M: 12/8
K: Gmajor
|:D2E G2A B3 BAB|d2B BAG A2 G E2 G|
D2E G2A B3 BAB|d2B BAG ABA [1 G3:|2 GBd||
|:ege e2d BdB B2A|GAG GAB A2 G E2 D|
[1 ege e2d BdB B2A|GAG GAB ABA GBd:|
[2 D2E G2A B3 BAB|d2B BAG ABA G3||

